x-pack/plugins/enterprise_search/public/applications/workplace_search/components/shared/assets/source_icons/share_circle.svg

<svg fill="none" xmlns="http://www.w3.org/2000/svg" viewBox="0 0 479 474">
  <path fill-rule="evenodd" clip-rule="evenodd" d="M220.262 1.41682C195.691 6.84541 174.739 24.4644 165.405 47.6073 162.739 53.9882 159.881 66.9405 159.786 72.0834 159.786 75.3215 159.501 75.5119 147.596 81.6072 94.9292 108.179 57.4054 153.036 41.3102 208.464 38.0721 219.798 33.8816 244.274 33.8816 251.893 33.8816 255.448 33.8816 256.863 34.5886 257.55 35.0557 258.005 35.8314 258.142 37.1197 258.369 38.834 258.655 46.7387 258.94 54.5482 259.131L68.8339 259.417V254.845C68.8339 252.464 69.6911 245.036 70.8339 238.369 76.7387 202.274 91.4054 172.845 116.643 146.655 128.739 134.179 144.929 121.893 158.072 115.321L166.739 110.94 171.12 117.702C182.072 134.56 200.358 147.131 220.358 151.512 253.215 158.655 288.738 141.988 304.167 112.083 311.786 97.3215 314.262 84.2739 312.643 67.8929 311.596 57.4167 309.881 51.9882 303.977 40.3691 296.358 25.4168 281.31 11.893 265.119 5.3216 252.167.17866 233.5-1.44036 220.262 1.41682zM253.024 39.1311C260.834 42.6549 265.119 46.0834 269.5 52.1787 284.834 73.6073 277.31 103.036 253.691 113.893 232.453 123.702 209.12 115.321 199.12 94.1787 195.691 87.0357 195.405 85.7025 195.405 77.4167 195.31 58.9405 204.167 45.512 221.405 38.3691 226.643 36.0834 228.453 35.893 237.31 36.1787 245.596 36.3691 248.358 36.9406 253.024 39.1311zM340.834 108.56L331.5 123.226 333.881 124.845C349.881 135.226 368.929 154.179 379.786 170.369 398.643 198.464 408.834 231.226 408.834 263.417 408.834 270.655 408.548 278.083 408.167 279.797L408.162 279.822C407.595 282.846 407.578 282.94 400.929 282.94 381.786 282.94 362.548 291.131 348.262 305.321 328.453 325.036 321.5 349.416 327.405 378.274 331.5 398.369 347.881 419.131 367.31 428.94 379.977 435.226 389.691 437.226 404.834 436.654 418.834 436.083 424.834 434.464 438.262 427.702 449.31 422.083 463.5 407.893 469.5 396.369 479.691 376.94 481.405 355.607 474.357 334.845 469.786 321.417 459.691 307.607 448.262 298.94L442.643 294.655 443.31 288.083C444.548 276.94 444.072 250.94 442.357 238.75 437.5 202.559 422.643 166.655 401.31 139.798 393.31 129.702 377.786 113.798 369.691 107.321 361.977 101.131 351.786 93.8929 350.834 93.8929 350.453 93.8929 345.881 100.464 340.834 108.56zM418.929 322.75C427.5 326.75 434.834 334.083 439.024 342.655 442.167 349.036 442.357 349.988 442.357 360.369 442.357 370.845 442.167 371.797 439.024 378.083 428.834 398.845 404.643 407.035 383.215 396.94 367.596 389.702 358.167 371.512 360.834 354.083 363.31 338.178 373.405 326.369 389.31 320.655 397.31 317.797 410.548 318.655 418.929 322.75zM7.21495 327.417C18.3578 303.797 38.453 288.845 65.8816 283.512 71.4054 282.464 89.5006 283.797 96.6435 285.797 121.691 293.036 142.548 313.226 149.691 337.416 156.358 359.607 152.739 384.94 140.643 402.178 139.501 403.702 138.739 405.131 138.929 405.321 141.691 407.797 157.596 417.131 165.31 420.845 193.31 434.273 226.739 440.178 254.834 436.845 276.834 434.273 290.358 430.845 311.024 422.369 312.453 421.797 314.072 424.369 320.262 436.75 324.453 445.131 327.881 452.178 327.881 452.654 327.881 454.845 300.548 464.559 283.596 468.273 266.548 472.083 256.929 473.131 239.31 473.131 194.643 473.035 155.215 460.464 119.12 434.654 113.367 430.574 111.655 429.36 110.089 429.526 109.426 429.597 108.789 429.915 107.882 430.369 95.6911 436.654 73.6911 438.75 58.8339 435.035 36.2626 429.416 17.8816 414.75 7.88161 394.464 2.64354 383.797.834004 376.559.167348 363.893-.594554 350.178 1.40545 339.607 7.21495 327.417zM117.12 354.178C114.643 339.988 106.072 328.75 93.1197 322.655 76.8339 315.036 55.7863 319.702 44.6435 333.416 30.6435 350.464 31.7864 373.988 47.2149 389.416 62.5482 404.75 86.5482 405.321 103.882 390.845 113.691 382.655 119.31 367.035 117.12 354.178z" fill="#647487"/>
</svg>

<svg fill="none" xmlns="http://www.w3.org/2000/svg" viewBox="0 0 479 474"><path fill-rule="evenodd" clip-rule="evenodd" d="M220.262 1.417c-24.571 5.428-45.523 23.047-54.857 46.19-2.666 6.381-5.524 19.334-5.619 24.476 0 3.239-.285 3.429-12.19 9.524-52.667 26.572-90.19 71.429-106.286 126.857-3.238 11.334-7.428 35.81-7.428 43.429 0 3.555 0 4.97.707 5.657.467.455 1.242.592 2.53.819 1.715.286 9.62.571 17.43.762l14.285.286v-4.572c0-2.381.857-9.809 2-16.476 5.905-36.095 20.571-65.524 45.809-91.714 12.096-12.476 28.286-24.762 41.429-31.334l8.667-4.381 4.381 6.762c10.952 16.858 29.238 29.429 49.238 33.81 32.857 7.143 68.38-9.524 83.809-39.429 7.619-14.761 10.095-27.81 8.476-44.19-1.047-10.476-2.762-15.905-8.666-27.524-7.619-14.952-22.667-28.476-38.858-35.047C252.167.179 233.5-1.44 220.262 1.417zm32.762 37.714c7.81 3.524 12.095 6.952 16.476 13.048 15.334 21.428 7.81 50.857-15.809 61.714-21.238 9.809-44.571 1.428-54.571-19.714-3.429-7.143-3.715-8.477-3.715-16.762-.095-18.477 8.762-31.905 26-39.048 5.238-2.286 7.048-2.476 15.905-2.19 8.286.19 11.048.762 15.714 2.952zm87.81 69.429l-9.334 14.666 2.381 1.619c16 10.381 35.048 29.334 45.905 45.524 18.857 28.095 29.048 60.857 29.048 93.048 0 7.238-.286 14.666-.667 16.38l-.005.025c-.567 3.024-.584 3.118-7.233 3.118-19.143 0-38.381 8.191-52.667 22.381-19.809 19.715-26.762 44.095-20.857 72.953 4.095 20.095 20.476 40.857 39.905 50.666 12.667 6.286 22.381 8.286 37.524 7.714 14-.571 20-2.19 33.428-8.952 11.048-5.619 25.238-19.809 31.238-31.333 10.191-19.429 11.905-40.762 4.857-61.524-4.571-13.428-14.666-27.238-26.095-35.905l-5.619-4.285.667-6.572c1.238-11.143.762-37.143-.953-49.333-4.857-36.191-19.714-72.095-41.047-98.952-8-10.096-23.524-26-31.619-32.477-7.714-6.19-17.905-13.428-18.857-13.428-.381 0-4.953 6.571-10 14.667zm78.095 214.19c8.571 4 15.905 11.333 20.095 19.905 3.143 6.381 3.333 7.333 3.333 17.714 0 10.476-.19 11.428-3.333 17.714-10.19 20.762-34.381 28.952-55.809 18.857-15.619-7.238-25.048-25.428-22.381-42.857 2.476-15.905 12.571-27.714 28.476-33.428 8-2.858 21.238-2 29.619 2.095zM7.215 327.417c11.143-23.62 31.238-38.572 58.667-43.905 5.523-1.048 23.619.285 30.761 2.285 25.048 7.239 45.905 27.429 53.048 51.619 6.667 22.191 3.048 47.524-9.048 64.762-1.142 1.524-1.904 2.953-1.714 3.143 2.762 2.476 18.667 11.81 26.381 15.524 28 13.428 61.429 19.333 89.524 16 22-2.572 35.524-6 56.19-14.476 1.429-.572 3.048 2 9.238 14.381 4.191 8.381 7.619 15.428 7.619 15.904 0 2.191-27.333 11.905-44.285 15.619-17.048 3.81-26.667 4.858-44.286 4.858-44.667-.096-84.095-12.667-120.19-38.477-5.753-4.08-7.465-5.294-9.031-5.128-.663.071-1.3.389-2.207.843-12.19 6.285-34.19 8.381-49.048 4.666-22.571-5.619-40.952-20.285-50.952-40.571C2.644 383.797.834 376.559.167 363.893c-.762-13.715 1.238-24.286 7.048-36.476zm109.905 26.761c-2.477-14.19-11.048-25.428-24-31.523-16.286-7.619-37.334-2.953-48.477 10.761-14 17.048-12.857 40.572 2.572 56 15.333 15.334 39.333 15.905 56.667 1.429 9.809-8.19 15.428-23.81 13.238-36.667z" fill="#647487"/></svg>
